fs/comment_arrow_right_48_regular.svg

<svg viewBox="0 0 48 48" fill="none" xmlns="http://www.w3.org/2000/svg" height="1em" width="1em">
  <path d="M46 13C46 19.0751 41.0751 24 35 24C28.9249 24 24 19.0751 24 13C24 6.92487 28.9249 2 35 2C41.0751 2 46 6.92487 46 13ZM33.7071 7.29289C33.3166 6.90237 32.6834 6.90237 32.2929 7.29289L27.2929 12.2929C26.9024 12.6834 26.9024 13.3166 27.2929 13.7071L32.2929 18.7071C32.6834 19.0976 33.3166 19.0976 33.7071 18.7071C34.0976 18.3166 34.0976 17.6834 33.7071 17.2929L30.4142 14H42C42.5523 14 43 13.5523 43 13C43 12.4477 42.5523 12 42 12H30.4142L33.7071 8.70711C34.0976 8.31658 34.0976 7.68342 33.7071 7.29289ZM41.5 28.75V24.2608C42.4086 23.7353 43.2476 23.1029 44 22.3809V28.75C44 32.7541 40.7541 36 36.75 36H26.3967L15.5475 43.6583C14.0571 44.7103 12 43.6444 12 41.8201V36H11.25C7.24594 36 4 32.7541 4 28.75V13.25C4 9.24594 7.24594 6 11.25 6H24.0436C23.544 6.78039 23.1255 7.61768 22.7999 8.5H11.25C8.62665 8.5 6.5 10.6266 6.5 13.25V28.75C6.5 31.3734 8.62665 33.5 11.25 33.5H14.5V41.3376L25.6033 33.5H36.75C39.3734 33.5 41.5 31.3734 41.5 28.75Z" fill="#212121"/>
</svg>

<svg viewBox="0 0 48 48" fill="none" xmlns="http://www.w3.org/2000/svg" height="1em" width="1em">
  <path d="M46 13c0 6.075-4.925 11-11 11s-11-4.925-11-11S28.925 2 35 2s11 4.925 11 11ZM33.707 7.293a1 1 0 0 0-1.414 0l-5 5a1 1 0 0 0 0 1.414l5 5a1 1 0 0 0 1.414-1.414L30.414 14H42a1 1 0 1 0 0-2H30.414l3.293-3.293a1 1 0 0 0 0-1.414ZM41.5 28.75v-4.49a13.044 13.044 0 0 0 2.5-1.88v6.37A7.25 7.25 0 0 1 36.75 36H26.397l-10.85 7.658C14.057 44.71 12 43.644 12 41.82V36h-.75A7.25 7.25 0 0 1 4 28.75v-15.5A7.25 7.25 0 0 1 11.25 6h12.794c-.5.78-.919 1.618-1.244 2.5H11.25a4.75 4.75 0 0 0-4.75 4.75v15.5a4.75 4.75 0 0 0 4.75 4.75h3.25v7.838L25.603 33.5H36.75a4.75 4.75 0 0 0 4.75-4.75Z" fill="#212121"/>
</svg>
